X:1
T:ZIZ
T:ZIZ
T:MARCH-TWO STEP.
T:By ALFRED FELTMAN.
T:Copyright 1907 by E. T. Paull.
T:Copyright 1907 by E. T. Paull.
T:Copyright 1907 by E. T. Paull.
T:Copyright 1907 by E. T. Paull.
T:Copyright 1907 by E. T. Paull.
C:By ALFRED FELTMAN.
Z:Copyright 1907 by E. T. Paull.
%%score { ( 1 3 ) | ( 2 4 ) }
L:1/8
Q:1/4=90
M:2/4
K:Bb
V:1 treble nm="Piano" snm="Pno."
V:3 treble 
V:2 bass 
V:4 bass 
V:1
"^Con Spirito."!ff! [DF]F/F/ F/D/B,/D/ | [DF]F/F/ F/D/F/B/ | [FA]F/F/ FF | %3
 F !>![Ff]!>![Gg]!>![Aa] ||!mf!"^Arr. by E. T. Paull." .[dfc'] !>![dfb]2 [da] | %5
 .[dfc'] !>![dfb]2 [dg] | [Dd]4- | [Dd] [df][dg][dfa] | .[dfc'] !>![dfb]2 [da] | %9
 .[dfc'] !>![dfb]2 [dg] | [Ee]4- | [Ee] [ce][cf][ceg] | .[ceb] !>![cea]2 [eg] | %13
 .[ceb] !>![cea]2 [eg] | [Ee]4- | [Ee] [ce][cf][ceg] | .[ceb] !>![cea]2 [eg] | %17
 .[ceb] !>![cea]2 [eg] | [Dd]4- | [Dd] !>![Ff]!>![Gg]!>![Aa] |!f! .[dfc'] !>![dfb]2 [da] | %21
 .[dfc'] !>![dfb]2 [d_a] | [Dd]4- | [Dd] [Bd][B^c][Bd] | .[=Bf_a] !>![Bg]2 [Bf] | %25
 .[=Bf_a] !>![Bg]2 [Bf] | [Ee]4- | [Ee] [Gg][^F^f][Gg] | .[dgd'] z !>![cgc']2- | %29
 [cgc'] [Gg][^F^f][Gg] | .[c=fc'] z !>![Bdb]2- | [Bdb] [Bd][B^c][Bd] | !>![G_eg]4- | %33
 [Geg] [FA][FAc][FAf] | B4- | B z [FA]>[GB] ||[K:F] !>![Ac]2 !>![Ad]2 | !>![Ae]2 !>![Af]2 | %38
 e>e !>![Beb]2- | [Beb] z [eg]>[fa] | !>![ec']2 !>![db]2 | !>![ca]2 !>![Bg]2 | [Cc]4- | %43
 [Cc] z [FA]>[GB] | !>![Ac]2 !>![Ad]2 | !>![Ae]2 !>![Fcf]2 | e>e !>![Geg]2- | [Geg] z =b>a | %48
 [c=e]2 [eg]2 | [=B=f]2 [Bd]2 |!<(! g4-!<)! |!>(! g!>)! z [FA]>[GB] | !>![Ac]2 !>![Ad]2 | %53
 !>![Ae]2 !>![Af]2 | e>e !>![Beb]2- | [Beb] z [eg]>[fa] | !>![ec']2 !>![db]2 | !>![ca]2 !>![Bg]2 | %58
 [Cc]4- | [Cc] z a>g | [c^f]2 [_e_e']2 | [dd']2 [cc']2 | [cc']2 [Bb]2 | [FBf]2 [GBg]2 | %64
 .[Aa] [cac']2 [cfa] | [ceg]2 [cec']2 | f4- | f !>![Ff]!>![Gg]!>![Aa] || %68
[K:Bb]!mf!"^Con Spirito" .[dfc'] !>![dfb]2 [da] | .[dfc'] !>![dfb]2 [dg] | [Dd]4- | %71
 [Dd] [df][dg][dfa] | .[dfc'] !>![dfb]2 [da] | .[dfc'] !>![dfb]2 [dg] | [Ee]4- | %75
 [Ee] [ce][cf][ceg] | .[ceb] !>![cea]2 [eg] | .[ceb] !>![cea]2 [eg] | [Ee]4- | [Ee] [ce][cf][ceg] | %80
 .[ceb] !>![cea]2 [eg] | .[ceb] !>![cea]2 [eg] | [Dd]4- | [Dd] !>![Ff]!>![Gg]!>![Aa] | %84
!f! .[dfc'] !>![dfb]2 [da] | .[dfc'] !>![dfb]2 [d_a] | [Dd]4- | [Dd] [Bd][B^c][Bd] | %88
 .[=Bf_a] !>![Bg]2 [Bf] | .[=Bf_a] !>![Bg]2 [Bf] | [Ee]4- | [Ee] [Gg][^F^f][Gg] | %92
 .[dgd'] z !>![cgc']2- | [cgc'] [Gg][^F^f][Gg] | .[c=fc'] z !>![Bdb]2- | [Bdb] [Bd][B^c][Bd] | %96
 !>![G_eg]4- | [Geg] [FA][FAc][FAf] | B4- | B z !>![Bdb] z || %100
[K:Eb][M:2/4]"^TRIO."{GB} !>![Ge][B,EG] z [B,EG] | z [Gc] [Gc]>[G_c] |:!mf!!f!"_-" z (g/^f/ ge | %103
 B) [Gc][Gc]>[G_c] | z (b/=a/ bg | e) z [eg]>e | !>![Ad]2 !>![Bdb]2 | !>![Ac]2 !>![Ada]2 | %108
 [eg]>e [GB]2- | [GB] [Gc][Gc]>[G_c] | z (g/^f/ ge | B) [Gc][Gc]>[G_c] | z (b/=a/ bg | %113
 e) z [eg]>e |!<(! !>![Bd]2 !>![Bdb]2 | !>![cd=a]2 [cd^f]2!<)! |1 g4- | g [Gc][Gc]>[G_c] :|2 g4- | %119
 g z !>![Bdab]2 ||"^Grandioso." !>![GBe]3 [Ff] | !>![Geg]2 f>e | [Bd] z !>![Bdb]2- | %123
 [Bdb] z [Bd]>[Bd] | [Ac] z !>![Aca]2- | [Aca] z [Ac]>a |!<(! g4- | g!<)! z !>![DAB]2 | %128
 !>![EGe]3 [Ff] | [Geg]2 f>e | [Bd] z !>![Fdf]2- | [Fdf] z [Bd]>[Bd] | [=Ac]2 [Fd]>[Ge] | %133
 [Fd]2 [Ec]2 | B4- | B[Ad] [Ac][AB] | !>![Ada] z [Adf]2- | [Adf] [Ad][Ac][AB] | %138
 !>![GBg] z [GBe]2- | [GBe]G [FA][FG] | !>![EGe] z [EGc]2- | [EGc] G[FA][FG] | !>![EGe] z [EGc]2- | %143
 [EGc] z [EGe]2 | !>![Ece]2 !>![Ece]2 | !>![Ece]>[Dd] [Ee][Ff] | [Geg] z !>![GB]2- | [GB] z =AB | %148
 [=Ac]2!<(! [Ace][Acg] | [_Adf]2 [Bdb]2!<)! | [GBe]4- | [GBe] z !>![ege'] z || %152
[K:Bb]!ff! [DF]F/F/ F/D/B,/D/ | [DF]F/F/ F/D/F/B/ | [FA]F/F/ FF | F !>![Ff]!>![Gg]!>![Aa] || %156
!mf! .[dfc'] !>![dfb]2 [da] | .[dfc'] !>![dfb]2 [dg] | [Dd]4- | [Dd] [df][dg][dfa] | %160
 .[dfc'] !>![dfb]2 [da] | .[dfc'] !>![dfb]2 [dg] | [Ee]4- | [Ee] [ce][cf][ceg] | %164
 .[ceb] !>![cea]2 [eg] | .[ceb] !>![cea]2 [eg] | [Ee]4- | [Ee] [ce][cf][ceg] | %168
 .[ceb] !>![cea]2 [eg] | .[ceb] !>![cea]2 [eg] | [Dd]4- | [Dd] !>![Ff]!>![Gg]!>![Aa] | %172
!f! .[dfc'] !>![dfb]2 [da] | .[dfc'] !>![dfb]2 [d_a] | [Dd]4- | [Dd] [Bd][B^c][Bd] | %176
 .[=Bf_a] !>![Bg]2 [Bf] | .[=Bf_a] !>![Bg]2 [Bf] | [Ee]4- | [Ee] [Gg][^F^f][Gg] | %180
 .[dgd'] z !>![cgc']2- | [cgc'] [Gg][^F^f][Gg] | .[c=fc'] z !>![Bdb]2- | [Bdb] [Bd][B^c][Bd] | %184
 !>![G_eg]4- | [Geg] [FA][FAc][FAf] |"^tutta forza."!ff! [DFB][DFB]/[DFB]/ [DFB][DFB] | %187
 [DFB][DFB]/[DFB]/ [DFB][DFB] | [EGB][EGB]/[EGB]/ [EGB][EGB] | [=EBc][EBc]/[EBc]/ [EBc][EBc] | %190
 [FBdf] !>![Fdf]2 [^Fc^f]- | [Fcf] !>![GBg]2 !>![Aea] | !>![Bdb] [DFB]/[DFB]/ [DFB][DFB] | %193
 [DFB][DFB]/[DFB]/ [DFB][DFB] | [EGB][EGB]/[EGB]/ [EGB][EGB] | [=EBc][EBc]/[EBc]/ [EBc][EBc] | %196
 [FBd]!8va(! !>![ff']3- | [ff']!>![^f^f']!>![gg']!>![aa'] | !>![bd'b']!8va)! z z2 | %199
!<(!{/B,-} (B,4!<)! |!fff! !>![Bdfb]) z z2 |] %201
V:2
 !>![B,,F,B,] z z2 | !>![B,,F,B,] z z2 | [F,A,E] F,/F,/ F,F, | F, !>![F,,F,]!>![E,,E,]!>![C,,C,] || %4
 [B,,,B,,][B,D] F,[B,D] | B,,[B,D] F,[B,D] |!ped! !>![B,,B,]2 !>![A,,A,]2 | %7
 !>![G,,G,]2!ped-up! !>![F,,F,]2 | B,,[B,D] F,[B,D] | B,,[B,D] F,[B,D] | %10
!ped! !>![C,C]2 !>![A,,A,]2 | !>![G,,G,]2!ped-up! !>![F,,F,]2 | C,[A,E] F,[A,E] | C,[A,E] F,[A,E] | %14
!ped! !>![C,C]2 !>![A,,A,]2 | !>![G,,G,]2!ped-up! !>![F,,F,]2 | C,[A,E] F,[A,E] | C,[A,E] F,[A,E] | %18
!ped! !>![B,,B,]2 !>![A,,A,]2 | [B,,,B,,]!ped-up! !>![E,,E,]!>![D,,D,]!>![C,,C,] | %20
 [B,,,B,,][B,D] F,[B,D] | B,,[B,D] F,[B,D] |!ped! !>![B,,B,]2 !>![A,,A,]2 | %23
 !>![G,,G,]2!ped-up! !>![F,,F,]2 | D,[G,=B,] G,,[G,B,] | D,[G,=B,] G,,[G,B,] | %26
!ped! !>![C,C]2 !>![G,,G,]2 | !>![C,,C,]2!ped-up! z2 |!ped! E,[G,C] C,[G,C] | %29
 E,[G,C]!ped-up! C,[G,C] |!ped! F,[B,D] B,,[B,D] | F,[B,D]!ped-up! B,,[B,D] | C,[A,CE] F,[A,CE] | %33
 C,[A,CE] F,[A,CE] |!ped! [B,,B,]>[G,,G,] [F,,F,][D,,D,] | [B,,,B,,]!ped-up! z z2 || %36
[K:F]!ped! F,[A,C] C,[A,C] | F,[A,C] C,[A,C]!ped-up! |!ped! G,[B,C] C,[G,B,C] | %39
 G,[B,C]!ped-up! C,[G,B,C] |!ped! G,[B,C] C,[G,B,C] | G,[B,C] C,[G,B,C]!ped-up! | %42
 [F,,F,]2 [^F,,^F,]2 | [G,,G,]C, z2 |!ped! F,[A,C] C,[A,C] | %45
 [F,,F,][A,C]!ped-up! [_A,,_A,][F,A,C] |!ped! [G,,G,][G,CE] C,[G,CE] | %47
 [G,,G,][G,CE]!ped-up! ^F,[C_E] |!ped! G,[C=E]!ped-up! G,[CE] |!ped! D,[DF]!ped-up! G,[DF] | %50
 [CE] !>!C2 D | EC, z2 |!ped! F,[A,C] C,[A,C] | F,[A,C] C,[A,C]!ped-up! |!ped! G,[B,C] C,[G,B,C] | %55
 G,[B,C]!ped-up! C,[G,B,C] |!ped! G,[B,C] C,[G,B,C] | G,[B,C] C,[G,B,C]!ped-up! | %58
!ped! !>![F,,F,]2 !>![E,,E,]2 | !>![D,,D,]2!ped-up! !>![^C,,^C,]2 |!ped! [D,,D,][A,C] ^F,[A,C] | %61
 D,[A,C] ^F,[A,C]!ped-up! |!ped! G,[B,D] G,[B,D] | D,[F,B,] _D,[F,B,]!ped-up! | %64
!ped! C,[F,A,C][F,A,C] z!ped-up! |!ped! [G,,G,][G,B,C] C,[G,B,C]!ped-up! | %66
!ped! [F,A,C]>[D,D] [C,C][A,,A,] | [F,,F,]!ped-up! !>![_E,,_E,]!>![D,,D,]!>![C,,C,] || %68
[K:Bb] [B,,,B,,][B,D] F,[B,D] | B,,[B,D] F,[B,D] |!ped! !>![B,,B,]2 !>![A,,A,]2 | %71
 !>![G,,G,]2!ped-up! !>![F,,F,]2 | B,,[B,D] F,[B,D] | B,,[B,D] F,[B,D] | %74
!ped! !>![C,C]2 !>![A,,A,]2 | !>![G,,G,]2!ped-up! !>![F,,F,]2 | C,[A,E] F,[A,E] | C,[A,E] F,[A,E] | %78
!ped! !>![C,C]2 !>![A,,A,]2 | !>![G,,G,]2!ped-up! !>![F,,F,]2 | C,[A,E] F,[A,E] | C,[A,E] F,[A,E] | %82
!ped! !>![B,,B,]2 !>![A,,A,]2 | [B,,,B,,]!ped-up! !>![E,,E,]!>![D,,D,]!>![C,,C,] | %84
 [B,,,B,,][B,D] F,[B,D] | B,,[B,D] F,[B,D] |!ped! !>![B,,B,]2 !>![A,,A,]2 | %87
 !>![G,,G,]2!ped-up! !>![F,,F,]2 | D,[G,=B,] G,,[G,B,] | D,[G,=B,] G,,[G,B,] | %90
!ped! !>![C,C]2 !>![G,,G,]2 | !>![C,,C,]2!ped-up! z2 | E,[G,C] C,[G,C] | E,[G,C] C,[G,C] | %94
 F,[B,D] B,,[B,D] | F,[B,D] B,,[B,D] | C,[A,CE] F,[A,CE] | C,[A,CE] F,[A,CE] | %98
!ped! [B,,B,]>[G,,G,] [F,,F,][D,,D,] | [B,,,B,,]!ped-up! z !>![B,,,B,,] z || %100
[K:Eb][M:2/4] !>![E,,E,]z[B,,,B,,] z | [E,,E,][B,E] B,,[B,E] |:!ped! E,[G,B,E] B,,[G,B,E] | %103
 E,[G,B,E]!ped-up! B,,[G,B,E] |!ped! E,[G,B,E] B,,[G,B,E] | E,[G,B,E]!ped-up! B,,[G,B,E] | %106
!ped! F,[A,B,D] B,,[A,B,D]!ped-up! |!ped! F,[A,B,D] B,,[A,B,D]!ped-up! | %108
!ped! E,[G,B,E] B,,[G,B,E] | E,[G,B,E]!ped-up! B,,[G,B,E] |!ped! E,[G,B,E] B,,[G,B,E] | %111
 E,[G,B,E]!ped-up! B,,[B,E] |!ped! E,[G,B,E] B,,[G,B,E] | E,[G,B,E]!ped-up! C,[E,G,C] | %114
!ped! G,[B,D] D,[B,D]!ped-up! |!ped! ^F,[=A,C] D,[A,C] |1 [G,,G,]>!ped-up![^C,^C] [D,D][B,,B,] | %117
 [G,,G,] z z2 :|2"_" [G,,G,]>[^C,^C] [D,D][B,,B,] | [G,,G,] z !>![F,,F,]2 || %120
!ped! [E,,E,][G,B,E] D,[G,B,E] | E,[G,B,E] G,[B,E]!ped-up! |!ped! F,[A,B,D] B,,[A,B,D] | %123
 F,[A,B,D] B,,[A,B,D]!ped-up! |!ped! F,[A,B,D] B,,[A,B,D] | F,[A,B,D] B,,[A,B,D]!ped-up! | %126
!ped! [E,,E,][E,E][D,D][C,C] | [B,,B,][A,,A,]!ped-up![G,,G,][F,,F,] | %128
!ped! [E,,E,][G,B,E] D,[G,B,E] | E,[G,B,E] G,[B,E]!ped-up! |!ped! F,[B,D] F,[B,D] | %131
 [B,,B,][F,B,D]!ped-up! [F,,F,][F,B,D] |!ped! C,[=A,E] F,[A,E]!ped-up! | %133
 C,[F,=A,]!ped! F,,[F,A,]!ped-up! |!ped! [B,,B,]B,F,D, | B,,!ped-up! z z2 | %136
!ped! F,[A,B,D] B,,[A,B,D] | F,[A,B,D]!ped-up! B,,[A,B,D] |!ped! E,[G,B,E] B,,[G,B,E] | %139
 E,[G,B,E]!ped-up! D,[G,=B,] |!ped! C,[G,C] G,,[G,C] | E,[G,C]!ped-up! D,[G,=B,] | %142
!ped! C,[G,C] G,,[G,C] | C,[G,C] G,,[G,C]!ped-up! |!ped! A,,[E,A,C] A,,[E,A,C] | %145
 A,,[E,A,C] A,,[A,C]!ped-up! |!ped! B,,[G,B,E] B,,[G,B,E] | E,[G,B,E]!ped-up! z2 | %148
 F,[=A,E] F,[A,E] | B,,[_A,B,D] B,,[A,B,D] | [E,,E,]>[C,C][B,,B,][G,,G,] | %151
 [E,,E,] z!8vb(! !>![E,,,E,,]!8vb)! z ||[K:Bb] !>![B,,F,B,] z z2 | !>![B,,F,B,] z z2 | %154
 [F,A,E] F,/F,/ F,F, | F, !>![F,,F,]!>![E,,E,]!>![C,,C,] || [B,,,B,,][B,D] F,[B,D] | %157
 B,,[B,D] F,[B,D] |!ped! !>![B,,B,]2 !>![A,,A,]2 | !>![G,,G,]2!ped-up! !>![F,,F,]2 | %160
 B,,[B,D] F,[B,D] | B,,[B,D] F,[B,D] |!ped! !>![C,C]2 !>![A,,A,]2 | %163
 !>![G,,G,]2!ped-up! !>![F,,F,]2 | C,[A,E] F,[A,E] | C,[A,E] F,[A,E] |!ped! !>![C,C]2 !>![A,,A,]2 | %167
 !>![G,,G,]2 !>![F,,F,]2!ped-up! | C,[A,E] F,[A,E] | C,[A,E] F,[A,E] | %170
!ped! !>![B,,B,]2 !>![A,,A,]2 | !>![B,,,B,,]!ped-up! !>![E,,E,]!>![D,,D,]!>![C,,C,] | %172
 [B,,,B,,][B,D] F,[B,D] | B,,[B,D] F,[B,D] |!ped! !>![B,,B,]2 !>![A,,A,]2 | %175
 !>![G,,G,]2!ped-up! !>![F,,F,]2 | D,[G,=B,] G,,[G,B,] | D,[G,=B,] G,,[G,B,] | %178
!ped! !>![C,C]2 !>![G,,G,]2 | !>![C,,C,]2!ped-up! z2 |!ped! E,[G,C] C,[G,C] | %181
 E,[G,C]!ped-up! C,[G,C] |!ped! F,[B,D] B,,[B,D] | F,[B,D]!ped-up! B,,[B,D] | C,[A,CE] F,[A,CE] | %185
 C,[A,CE] F,[A,CE] |"^accel."!ped! !>![B,,B,]3 !>![B,,B,]!ped-up! | %187
!ped! !>![_A,,_A,]3 !>![A,,A,]!ped-up! | !>![G,,G,]3 [G,,G,] |!ped! !>![_G,,_G,]3 [G,,G,]!ped-up! | %190
 !>![F,,F,]2 !>![_E,,_E,]2 | !>![D,,D,]2 !>![C,,C,]2 |!ped! !>![B,,,B,,]3 !>![B,,B,]!ped-up! | %193
!ped! !>![_A,,_A,]3 !>![A,,A,]!ped-up! |!ped! [G,,G,]3 [G,,G,]!ped-up! |!ped! [_G,,_G,]3 [G,,G,] | %196
 [F,,F,]!ped-up! !>![F,F]3- |!ped! [F,F]!>![E,E]!>![D,D]!>![C,C] | !>![B,,B,]!ped-up! z z2 | %199
 (!//-!B,,,2 B,,2-) | [B,,,B,,] z z2 |] %201
V:3
 x4 | x4 | x4 | x4 || x4 | x4 | z [FB]z[FB]- | [FB] x3 | x4 | x4 | z [Ac]z[Ac]- | [Ac] x3 | x4 | %13
 x4 | z [Ac]z[Ac]- | [Ac] x3 | x4 | x4 | z [FB]z[FB]- | [FB] x3 | x4 | x4 | z [FB]z[FB]- | %23
 [FB] x3 | x4 | x4 | z [Gc]z[Gc]- | [Gc] x3 | x4 | x4 | x4 | x4 | x4 | x4 | [DF]>[DF] [DF][DF] | %35
 [DF] x3 ||[K:F] x4 | x4 | B2 x2 | x4 | x4 | x4 | z [FA]z[^DA] | [EA] x3 | x4 | x4 | [Gc]2 x2 | %47
 x2 [c_e]2 | x4 | x4 | [_Be] !>![Be]2 [Bd] | [Bc] x3 | x4 | x4 | B2 x2 | x4 | x4 | x4 | %58
 z [FA]z[FA]- | [FA] x !>![Ae]2 | x4 | x4 | x4 | x4 | x4 | x4 | [FA]>[FA] [FA][FA] | [FA] x3 || %68
[K:Bb] x4 | x4 | z [FB]z[FB]- | [FB] x3 | x4 | x4 | z [Ac]z[Ac]- | [Ac] x3 | x4 | x4 | %78
 z [Ac]z[Ac]- | [Ac] x3 | x4 | x4 | z [FB]z[FB]- | [FB] x3 | x4 | x4 | z [FB]z[FB]- | [FB] x3 | %88
 x4 | x4 | z [Gc]z[Gc]- | [Gc] x3 | x4 | x4 | x4 | x4 | x4 | x4 | [DF]>[DF] [DF][DF] | [DF] x3 || %100
[K:Eb][M:2/4] x4 | x4 |: [GB]4- | [GB] x3 | [GB]4- | [GB] x G2 | x4 | x4 | G2 x2 | x4 | [GB]4- | %111
 [GB] x3 | [GB]4- | [GB] x G2 | x4 | x4 |1 B>[GB] [GB][GB] | [GB] x3 :|2 B>[GB] [GB][GB] | %119
 [GB] x3 || x4 | x2 B2 | x4 | x4 | x4 | x4 | [GB][GB] z [GB]- | [GB] x3 | x4 | x2 B2 | x4 | x4 | %132
 x4 | x4 | D[DF] z [DF] | [DF] z x2 | x4 | x4 | x4 | x4 | x4 | x4 | x4 | x4 | x4 | x4 | x4 | x4 | %148
 x4 | x4 | x4 | x4 ||[K:Bb] x4 | x4 | x4 | x4 || x4 | x4 | z [FB]z[FB]- | [FB] x3 | x4 | x4 | %162
 z [Ac]z[Ac]- | [Ac] x3 | x4 | x4 | z [Ac]z[Ac]- | [Ac] x3 | x4 | x4 | z [FB]z[FB]- | [FB] x3 | %172
 x4 | x4 | z [FB]z[FB]- | [FB] x3 | x4 | x4 | z [Ac]z[Ac]- | [Ac] x3 | x4 | x4 | x4 | x4 | x4 | %185
 x4 | x4 | x4 | x4 | x4 | x4 | x4 | x4 | x4 | x4 | x4 | x!8va(! x3 | x4 | x!8va)! x3 | x4 | x4 |] %201
V:4
 x4 | x4 | x4 | x4 || x4 | x4 | x4 | x4 | x4 | x4 | x4 | x4 | x4 | x4 | x4 | x4 | x4 | x4 | x4 | %19
 x4 | x4 | x4 | x4 | x4 | x4 | x4 | x4 | x4 | x4 | x4 | x4 | x4 | x4 | x4 | x4 | x4 ||[K:F] x4 | %37
 x4 | x4 | x4 | x4 | x4 | x4 | x4 | x4 | x4 | x4 | x4 | x4 | x4 | x4 | x4 | x4 | x4 | x4 | x4 | %56
 x4 | x4 | x4 | x4 | x4 | x4 | x4 | x4 | x4 | x4 | x4 | x4 ||[K:Bb] x4 | x4 | x4 | x4 | x4 | x4 | %74
 x4 | x4 | x4 | x4 | x4 | x4 | x4 | x4 | x4 | x4 | x4 | x4 | x4 | x4 | x4 | x4 | x4 | x4 | x4 | %93
 x4 | x4 | x4 | x4 | x4 | x4 | x4 ||[K:Eb][M:2/4] x4 | x4 |: x4 | x4 | x4 | x4 | x4 | x4 | x4 | %109
 x4 | x4 | x4 | x4 | x4 | x4 | x4 |1 x4 | x4 :|2 x4 | x4 || x4 | x4 | x4 | x4 | x4 | x4 | x4 | x4 | %128
 x4 | x4 | x4 | x4 | x4 | x4 | x4 | x4 | x4 | x4 | x4 | E,2 D,2 | x4 | x4 | x4 | x4 | x4 | x4 | %146
 x4 | x4 | x4 | x4 | x4 | x2!8vb(! x!8vb)! x ||[K:Bb] x4 | x4 | x4 | x4 || x4 | x4 | x4 | x4 | x4 | %161
 x4 | x4 | x4 | x4 | x4 | x4 | x4 | x4 | x4 | x4 | x4 | x4 | x4 | x4 | x4 | x4 | x4 | x4 | x4 | %180
 x4 | x4 | x4 | x4 | x4 | x4 | x4 | x4 | x4 | x4 | x4 | x4 | x4 | x4 | x4 | x4 | x4 | x4 | x4 | %199
 x4 | x4 |] %201

